!!!COM: Palestrina, Giovanni Perluigi da
!!!OPR: Missa De Beata Marie Virginis (II)
!!!OTL: Sanctus
**kern	**kern	**kern	**kern	**kern
*Ibass	*Itenor	*Itenor	*Icalto	*Icant
!Bassus	!Tenor 2	!Tenor 1	!Altus	!Cantus
*clefF4	*clefGv2	*clefGv2	*clefG2	*clefG2
*k[]	*k[]	*k[]	*k[]	*k[]
*G:mix	*G:mix	*G:mix	*G:mix	*G:mix
*M4/2	*M4/2	*M4/2	*M4/2	*M4/2
=1	=1	=1	=1	=1
0r	0r	1G	1g	0r
.	.	2A	1e	.
.	.	[2c	.	.
=2	=2	=2	=2	=2
1G	2r	2c]	1d	0r
.	2d	2B	.	.
1E	2e	4c	1r	.
.	.	4B	.	.
.	[2g	4B	.	.
.	.	8A	.	.
.	.	8G	.	.
=3	=3	=3	=3	=3
1D	2g]	1A	2r	1dd
.	2f#	.	2d	.
1r	1g	1r	2e	1b
.	.	.	[2g	.
=4	=4	=4	=4	=4
2r	1r	1d	2g]	1a
2D	.	.	2f#	.
2E	2r	1B	1g	1g
[2G	2d	.	.	.
=5	=5	=5	=5	=5
2G]	2e	1A	1a	1r
2F#	2.d	.	.	.
2.G	.	1B	[1g	1dd
.	4c	.	.	.
.	4B	.	.	.
4F	4A	.	.	.
=6	=6	=6	=6	=6
1E	1G	2c	1g]	2ee
.	.	2B	.	1gg
[1D	1A	[1d	2r	.
.	.	.	4d	[2ff
.	.	.	4e	.
=7	=7	=7	=7	=7
1D]	1.a	1d]	4f	4ff]
.	.	.	4g	4ee
.	.	.	4a	1dd
.	.	.	4b-	.
1A	.	1e	1a	.
.	2e	.	.	2cc#
=8	=8	=8	=8	=8
[0D	[0f#	[0d	[0a	[0dd
=9	=9	=9	=9	=9
0D]	0f#]	0d]	0a]	0dd]
==	==	==	==	==
*-	*-	*-	*-	*-
!!!CDT: 1525/^1526/-1594/2/2
!!!OCY: Italia
!!!AGN: Mass (Paraphrase)
!!!AST: renaissance, vocal
!!!ASW: Gregorian Mass
!!!PWK: Masses, Book Mantuan I
!!!RNB: Cadence finals: D
!!!YOR: Le Opere Complete, v. 18, p. 126
!!!YOO: Rome, Italy: Fratelli Scalera
!!!END: 1992//
!!!EED: John Miller
!!!YEC: Copyright 2000, John Miller
!!!YEN: United States of America
!!!YEM: Rights to all derivative electronic formats reserved.
!!!YEM: Refer to licensing agreement for further details.
!!!YEM: This file must be accompanied by the licensing agreement.
!!!YEM: A copy of the licensing agreement may be found at http://www.music-cog.ohio-state.edu/HumdrumDatabases/Palestrina/license.txt
!!!EMD: converted to Humdrum by Bret Aarden
